X:13
T:Vanocni noc
M:3/4
L:1/4
%%staves [(1 2) (3 4)] {(1I 2I) 3I}
%%continueall 0
K:Bb
V:1 name=S
FGA | B2B | c2c | (d3/c//d//)e | dc2 | B2z |
FGA | B2B | c2c | (d3/c//d//)e | dc2 | B2z |
ddc | d2c | dB2 | c2B | AG2 | F2z |
ddc | d2c | dB2 | (c3/d/)e | dc2 | B3 |]
V:2 name=A
DD=E/F/ | G2D | F2G | (FD)G | G(CF)| D2x |
DD=E/F/ | G2D | F2G | (FD)G | G(CF)| D2x |
FFF | F2F | F(F=E) | F2B, | CC2 | C2x |
DFF | F2F | F(F=E) | F2G | G(CF) | F3 |]
V:3 name=T
B,B,C | (G,3/A,/)B, | A,2G, | B,2C/B,/ | B,(B,A,) | B,2z |
B,B,C | (G,3/A,/)B, | A,2G, | B,2C/B,/ | B,(B,A,) | B,2z |
B,B,C | B,2C | B,(B,G,) | A,2G, | F,(F,=E,) | F,2z |
F,B,C | B,2C | B,(B,G,) | (A,3/B,/)C | B,(B,A,) | B,3 |]
V:4 name=B
B,,B,,A,, | G,,2G, | F,2_E, | (D,B,,)E, | E,F,2 | B,,2x |
B,,B,,A,, | G,,2G, | F,2_E, | (D,B,,)E, | E,F,2 | B,,2x |
B,,B,,A,, | B,,2A,, | B,,G,,2 | F,,2G,, | A,,/B,,/ C,2 | F,,2x |
B,,B,,A,, | B,,2A,, | B,,G,,2 | (F,,F,)E, | E,F,2 | B,,3 |]
V:1I
FD=E/F/ | G2D | F2G | F2G- | GF2 | D2z |
FD=E/F/ | G2D | F2G | F2G- | GF2 | D2z |
F3 | FBF | F2=E | F2D | FG2 | A2z |
F3 | FBF | F2=E | FA/B/c | GF2 | F3 |]
V:2I
DB,C | B,2B, | A,2C | FDC | B,2A, | B,2x |
DB,C | B,2B, | A,2C | FDC | B,2A, | B,2x |
D2C | D2C | dB,2 | A,2B, | C3 | C2z |
D2C | D2C | dB,2 | A,CG | EC2 | D3 |]
V:3I
B,,2A,, | G,,2G, | F,2E, | D,B,,E,- | E, F,2 | B,,2z |
B,,2A,, | G,,2G, | F,2E, | D,B,,E,- | E, F,2 | B,,2z |
B,,2A,, | B,,2A,, | B,,G,,2 | x2G,&F,,2G,, | F,2=E,&A,,/B,,/C,2 | F,2x&F,,2z | 
B,,2A,, | B,,2A,, | B,,G,,2 | xxC&F,,F,E,- | B,2A,&E,F,2 | B,3&B,,3 |]
